X:40
T:Steyrer Tanz - Clarinetto - in C, nr. 2
C:traditionell
R:Steirer
A:Hallstatt, Salzkammergut
B:Corpus Musicae Popularis Austriacae (COMPA), 5.Band: J.M.Schmalnauer " Tanz Musik", Verlag Boehlau, Wien 1996
S:manuscript des Johann Michael Schmalnauer um 1820
N:im der quelle in C
N:um1800
N:in der Handschrift keine 2 .Stimme
M:3/4
L:1/8
K:C
ec |\
dbgb g2 | cegec'g | dbgbdb | c'gegce |\
dbgb g2 | cegec'g | dbgbdb | c'4 :|
K:G
BG |\
Afdf A2 | GBdBgB | Afdf Af | gdBdGB |\
Afdf A2 | GBdBgB | Afdf Af | g4 :|
